X:710
M:C
L:1/8
K:B_
f>d e/d/c/B/ F<B~B:||:f/e/|d<Bd<f ~g3b|f>d e/d/c/B/ A<c cd/e/|1
f>Bd>f g3b|f>dc>B F<B~B:|2 d<f f>b e<g g>b|f>dc>B d<B~B||

